svg/logo/wechat_miniprogram_line.svg

<?xml version="1.0" encoding="UTF-8"?>
<svg width="24px" height="24px" viewBox="0 0 24 24" version="1.1" xmlns="http://www.w3.org/2000/svg" xmlns:xlink="http://www.w3.org/1999/xlink">
    <title>wechat_miniprogram_line</title>
    <g id="Icon" stroke="none" stroke-width="1" fill="none" fill-rule="evenodd">
        <g id="Logo" transform="translate(-240.000000, -288.000000)" fill-rule="nonzero">
            <g id="wechat_miniprogram_line" transform="translate(240.000000, 288.000000)">
                <path d="M24,0 L24,24 L0,24 L0,0 L24,0 Z M12.5935,23.2578 L12.5819,23.2595 L12.5109,23.295 L12.4919,23.2987 L12.4767,23.295 L12.4057,23.2595 C12.3958,23.2564 12.387,23.259 12.3821,23.2649 L12.378,23.2758 L12.3609,23.7031 L12.3659,23.7235 L12.3769,23.7357 L12.4805,23.8097 L12.4953,23.8136 L12.5071,23.8097 L12.6107,23.7357 L12.6233,23.7197 L12.6267,23.7031 L12.6096,23.2758 C12.6076,23.2657 12.601,23.2593 12.5935,23.2578 Z M12.8584,23.1453 L12.8445,23.1473 L12.6598,23.2397 L12.6499,23.2499 L12.6472,23.2611 L12.6651,23.6906 L12.6699,23.7034 L12.6784,23.7105 L12.8793,23.8032 C12.8914,23.8069 12.9022,23.803 12.9078,23.7952 L12.9118,23.7812 L12.8777,23.1665 C12.8753,23.1546 12.8674,23.147 12.8584,23.1453 Z M12.143,23.1473 C12.1332,23.1424 12.1222,23.1453 12.1156,23.1526 L12.1099,23.1665 L12.0758,23.7812 C12.0751,23.7927 12.0828,23.8019 12.0926,23.8046 L12.1083,23.8032 L12.3092,23.7105 L12.3186,23.7024 L12.3225,23.6906 L12.3404,23.2611 L12.3372,23.2485 L12.3278,23.2397 L12.143,23.1473 Z" id="MingCute"></path>
                <path d="M12,2 C17.5228,2 22,6.47715 22,12 C22,17.5228 17.5228,22 12,22 C6.47715,22 2,17.5228 2,12 C2,6.47715 6.47715,2 12,2 Z M12,4 C7.58172,4 4,7.58172 4,12 C4,16.4183 7.58172,20 12,20 C16.4183,20 20,16.4183 20,12 C20,7.58172 16.4183,4 12,4 Z M13.7411,6.99016 C14.7549,6.78741 15.8029,7.10472 16.5339,7.83573 C18.0586543,9.360494 17.5864068,11.9172121 15.6688344,12.8178024 L15.4959,12.8929 L15.4065,12.9286 C14.8937,13.1337 14.3117,12.8843 14.1066,12.3715 C13.91615,11.8954214 14.1175903,11.3595893 14.5579156,11.1212563 L14.6637,11.0717 L14.7531,11.0359 C15.4809,10.7448 15.674,9.80426 15.1197,9.24994 C14.893775,9.02404125 14.5821766,8.91000797 14.267975,8.93299572 L14.1334,8.95131 L14.0325,8.97149 C13.4750786,9.08297429 13.0626867,9.54539224 13.0066176,10.1010367 L13.0001,10.2308 L13.0001,13.7695 C13.0001,15.27238 11.981732,16.5747198 10.5421043,16.9482048 L10.2591,17.0101 C9.24534,17.2129 8.19735,16.8956 7.46634,16.1646 C5.94156629,14.6398457 6.41384155,12.0830901 8.33142472,11.1824976 L8.50436,11.1074 L8.59372,11.0717 C9.1065,10.8666 9.68848,11.116 9.89359,11.6288 C10.0840493,12.1048786 9.88260102,12.6407107 9.44228259,12.8790437 L9.3365,12.9286 L9.24714,12.9644 C8.51927,13.2555 8.32622,14.196 8.88055,14.7504 C9.10644875,14.9762375 9.41805156,15.0902937 9.73226133,15.0673127 L9.86684,15.049 L9.96774,15.0288 C10.5251243,14.9172786 10.9375135,14.4549097 10.9935824,13.8992644 L11.0001,13.7695 L11.0001,10.2308 C11.0001,8.727872 12.018468,7.42553946 13.4581841,7.05212589 L13.6403,7.01034 L13.7411,6.99016 Z" id="形状" fill="#09244B"></path>
            </g>
        </g>
    </g>
</svg>

<svg xmlns="http://www.w3.org/2000/svg" width="24" height="24"><g fill="none" fill-rule="nonzero"><path d="M24 0v24H0V0h24ZM12.594 23.258l-.012.002-.071.035-.02.004-.014-.004-.071-.036c-.01-.003-.019 0-.024.006l-.004.01-.017.428.005.02.01.013.104.074.015.004.012-.004.104-.074.012-.016.004-.017-.017-.427c-.002-.01-.009-.017-.016-.018Zm.264-.113-.014.002-.184.093-.01.01-.003.011.018.43.005.012.008.008.201.092c.012.004.023 0 .029-.008l.004-.014-.034-.614c-.003-.012-.01-.02-.02-.022Zm-.715.002a.023.023 0 0 0-.027.006l-.006.014-.034.614c0 .012.007.02.017.024l.015-.002.201-.093.01-.008.003-.011.018-.43-.003-.012-.01-.01-.184-.092Z"/><path fill="#09244B" d="M12 2c5.523 0 10 4.477 10 10s-4.477 10-10 10S2 17.523 2 12 6.477 2 12 2Zm0 2a8 8 0 1 0 0 16 8 8 0 0 0 0-16Zm1.741 2.99a3.092 3.092 0 0 1 2.793.846c1.525 1.524 1.052 4.081-.865 4.982l-.173.075-.09.036a1 1 0 0 1-.848-1.808l.106-.05.09-.035a1.092 1.092 0 0 0-.486-2.103l-.135.018-.1.02c-.558.112-.97.574-1.026 1.13l-.007.13v3.539a3.284 3.284 0 0 1-2.458 3.178l-.283.062a3.092 3.092 0 0 1-2.793-.845c-1.524-1.525-1.052-4.082.865-4.983l.173-.075.09-.035a1 1 0 0 1 .848 1.807l-.106.05-.089.035a1.092 1.092 0 0 0 .485 2.103l.135-.018.1-.02c.558-.112.97-.574 1.027-1.13l.006-.13v-3.538a3.284 3.284 0 0 1 2.458-3.179l.182-.042.101-.02Z"/></g></svg>
